X:404
T: Der Geiákopp (4-99), S. 134
N: P0674
O: Lothringen
S: PINCK, Louis: Verklingende Weisen Bd 4, Kassel 1939]
R: Tanzweise]
M: 3/4
L: 1/8
K: C
G2 | G4E2 | A4E2 | G4E2 | B4z2 | G2z4 | B2z4 | c2z2
G2 | G4E2 | A2A2E2 | G4E2 | B2z4 | G2z4 | B2z4 | c2z4
G6 | A2G2F2 | G3GG2 | F6
G6 | A2G2F2 | G3GG2 | F6
G3GG2 | F6 | G6 | B6 | c6

